X: 113
T: Coleraine
R:jig
M:6/8
K:Am
E|"Am"EAA ABc|"E"Bee e2d|"Am"cBA ABc|"E"B^GE E2D|
"Am"EAA ABc|"E"Bee e2d|"Am"cBA "E"B^GE|"Am"A3 A2:|
|: B|"C"c2c cdc|"G"Bgg g2^g|"Am"aed cBA|"E"^GBA E^FG|
"Am"A^GA "E"BAB|"Am"cde "Dm"fed|"Am"cBA "E"B^GE|"Am"A3 A2:|


